X: 12823
T: Felgubben
R: waltz
M: 3/4
K: Gminor
"Gm" d>g d2"D7" c>A|"Gm" B/c/B/A/ B2 G2|"D7" D^F/A/ dc/A/ FD|
[M:4/4]"Gm" G^F/G/ B/A/G/F/ GD G,D|[M:3/4]"Gm" d>g d2"D7" c>A|"Gm" B/c/B/A/ B2 G2|
"D7" D^F/A/ dc/A/ D=E/F/|"Gm" G2 G,2 z2:|:"Bb" d>b"D7" a2"Gm" g2|
"Eb" [EB]2 g[DA]"D7" ^fd|[M:2/4]"Gm" g2 d2|[M:3/4] B/A/B/c/ dg dc|
[M:4/4] BA/G/"D7" ^F/G/A/F/"Gm" GD G,D|[M:3/4]"Bb" d>b"D7" a2"Gm" g2|
"Eb" [EB]2 g[DA]"D7" ^fd|[M:2/4]"Gm" g2 d2|[M:3/4] B/A/B/c/ dg dc|
[M:4/4] BA/G/"D7" ^F/G/A/F/"Gm" G4:|

